communes/4136.svg

<?xml version="1.0" encoding="UTF-8"?>
<!DOCTYPE svg  PUBLIC '-//W3C//DTD SVG 1.1//EN'  'http://www.w3.org/Graphics/SVG/1.1/DTD/svg11.dtd'>
<svg width="400" height="450" version="1.1" viewBox="0 0 100 112.5" xmlns="http://www.w3.org/2000/svg">
<title>Wappen von Holziken</title>
<desc>Wappen der Schweizer Gemeinde Holziken, Kanton Aargau</desc>
<defs>
<clipPath id="a">
<path d="m2 2h96v60.5a48 48 0 0 1-96 0z"/>
</clipPath>
</defs>
<path d="m0 0h100v62.5a50 50 0 0 1-100 0"/>
<path d="m0 2v55l50-55 50 55v-57m-110 120 60-66 60 66" clip-path="url(#a)" fill="#fff"/>
<circle cx="50" cy="31" r="15" fill="#fcdb00"/>
<circle cx="79" cy="60" r="15" fill="#fcdb00"/>
<circle cx="21" cy="60" r="15" fill="#fcdb00"/>
</svg>

<?xml version="1.0" encoding="utf-8" standalone="no"?>
<!DOCTYPE svg PUBLIC "-//W3C//DTD SVG 1.1//EN" "http://www.w3.org/Graphics/SVG/1.1/DTD/svg11.dtd">
<svg version="1.1"
   xmlns="http://www.w3.org/2000/svg"
   width="400" height="450" viewBox="0 0 100 112.5">
  <title>Wappen von Holziken</title>
  <desc>Wappen der Schweizer Gemeinde Holziken, Kanton Aargau</desc>
  <defs>
    <clipPath id="cpSchild">
      <path d="M 2,2 H 98 V 62.5 A 48 48 0 0 1 2,62.5 z" />
    </clipPath>
  </defs>
  <path d="M 0,0 H 100 V 62.5 A 50 50 0 0 1 0,62.5" />
  <path d="M 0,2 V 57 L 50,2 100,57 V 0 M -10,120 L 50,54 110,120" fill="white" clip-path="url(#cpSchild)" />
  <circle cx="50" cy="31" r="15" fill="#fcdb00" />
  <circle cx="79" cy="60" r="15" fill="#fcdb00" />
  <circle cx="21" cy="60" r="15" fill="#fcdb00" />
</svg>
